rospo-newyear-dark/symbolic/mimetypes/text-x-generic-symbolic.svg

<svg height="16" width="16" xmlns="http://www.w3.org/2000/svg"><path d="m3 1c-1 0-1 1-1 1v13c0 1 1 1 1 1h10c1 0 1-1 1-1v-10l-4-4zm1 2h5v3h3v8h-8z" fill="#d3dae3"/></svg>

<svg xmlns="http://www.w3.org/2000/svg" width="16" height="16" version="1.1">
 <path style="fill:#d3dae3" d="M 3,1 C 2,1 2,2 2,2 V 15 C 2,16 3,16 3,16 H 13 C 14,16 14,15 14,15 V 5 L 10,1 Z M 4,3 H 9 V 6 H 12 V 14 H 4 Z"/>
</svg>
